public/avatar/body/128.svg

<svg xmlns:xlink="http://www.w3.org/1999/xlink" height="82" width="84.85" xmlns="http://www.w3.org/2000/svg"><g transform="translate(37.4 42.25)"><use height="38" transform="translate(-11.95 -17.45)" width="32.05" xlink:href="#a"/><use height="38.95" transform="translate(-12.45 -17.95)" width="33.05" xlink:href="#b"/><use height="10.35" transform="translate(10.45 -2.55)" width="9.65" xlink:href="#c"/><use height="10.35" transform="matrix(-1 0 0 1 -2.25 -3.1)" width="9.65" xlink:href="#c"/><use height="19.15" transform="translate(-12.95 4.2)" width="34.95" xlink:href="#d"/></g><defs><use height="38" width="32.05" xlink:href="#e" id="a"/><use height="38.95" width="33.05" xlink:href="#f" id="b"/><use height="10.35" width="9.65" xlink:href="#g" id="c"/><path d="M27.35 7.4q2.15 4.15 3.55 8.75 1.45 4.7 1.15 9.5-.35 4.95-4.2 8.1-3.8 3.2-8.75 4.05l-2.6.2q-3.6 0-7.05-1.15-4.65-1.6-7.1-5.5Q-.2 27.4.05 23q.2-4.4 2-9.3Q3.85 8.75 7 5.05 10.1 1.3 14.7.1l1.8-.1q1.9.05 3.7.8 4.75 2.05 7.15 6.6" fill="#fee7ed" fill-rule="evenodd" transform="translate(-.05)" id="e"/><path d="M27.35 7.4Q24.95 2.85 20.2.8 17.55-.3 14.7.1 10.1 1.3 7 5.05q-3.15 3.7-4.95 8.65-1.8 4.9-2 9.3-.25 4.4 2.3 8.35 2.45 3.9 7.1 5.5 4.65 1.55 9.65.95 4.95-.85 8.75-4.05 3.85-3.15 4.2-8.1.3-4.8-1.15-9.5-1.4-4.6-3.55-8.75Z" fill="none" stroke="#401a2d" stroke-linecap="round" stroke-linejoin="round" transform="translate(.45 .5)" id="f"/><g id="g" fill-rule="evenodd"><path d="m8.1 1.4.05.1q.6 2 1 4.8L8.1 1.4M3.25 9.15 0 10.35 1.55 4.4q.5-1.9 2.55-3.15Q5.8.15 7.55 0l.55 1.35Q4.45 1.6 3.65 4.6q-.9 3.25-.4 4.55" fill="#ffcbb7"/><path d="M8.1 1.35v.05l1.05 4.9.45 2.3.05.55h-6.4q-.5-1.3.4-4.55.8-3 4.45-3.25" fill="#ff9778"/></g><g id="d" fill-rule="evenodd"><path d="m-12.4 7.95.55-1.1-.2 1.2-.35-.1" transform="translate(12.95 -4.2)"/><path d="M9.65 15.35q3.4-3 8.05-4l2.6-.45-.05 1.25-.4 1.1-.35.6-1-.2.55 2.4-1.5-.35.35-2.15q-3.6-2.6-4.1 2.75 1.35 1.6 3.1.3l.35-.35.4.7q-2.1 2.5-5.6 2.9l.7-.75q.55-3.25-2.4-3.85l-.7.1m.4 4.75-.9-.3v-.6l.9.9m-2.45 0 .1.1-.1.15v-.25m2.2-1.95.1-.3.8-.25.45 1.5-.15.55-1.15-.85-.05-.65m-.55-.9.6-1.5.4 1.2-1 .3m-8.2 0h-.4l-.4.2-.15.25.15.3.5.2q-.35 1.2.5 2.1l.35.4q-4.6.85-8.7-.95-.05-1.65-1.45-2.45-.95-.6-1.95-1.05l-.3-1.65.5-.05.65 1.1q2 .95 2.85-.8l.3-1.1v-.1q0-1.2-.75-2.05l-.45-.45q3.55 1.5 6.85 3.75l2.1 1.45-.2.9m15.45-3.3.2.8-.2.85-.6.3q-.35 0-.55-.3-.25-.35-.25-.85t.25-.8q.2-.35.55-.35l.6.35m-5.6 2.2L12 17.2l-.15 1.25-.95-2.3m-19.2-5.2-1.25.4-.8.4-.25 1.45-.6-3 2.9.75m6.75 4.85-.45-.85q-4.6 0-2.55 3.9l.95.75 1.25-.75.5-.5q.95-1.05.3-2.55m-1.15 2.15-.7.5-1.15-.35q-.25-1.95 1.7-2.25.9 1 .15 2.1" fill="#005094" transform="translate(12.95 -4.2)"/><path d="m21 10.2.15 7.6-.85.25-1.1-1.9q-1.45 1.3-2.15 3.9L7.7 21l-.1-.65.1-.15-.1-.1-.1-1.4 1.3-.25.35.75v.6l.9.3 1.15-.05.85-.2q3.5-.4 5.6-2.9l-.4-.7.3-.55 1.5.35-.55-2.4 1 .2.35-.6.4-1.1.05-1.25-2.6.45q-4.65 1-8.05 4-.45 0-.75.6-.35.6-.35 1.45l-1.05-.05.45-2.1 1.3-.1.1-.15-.25-1 7.8-2.7.45-.15L21 10.2M-4.7 20.9h-.85l-2.2-.7-.05-.6q.1-1.25-.75-2.05-.4.3-.5.7-.35 1.25-1.5 1.95l-.55-1.75q-1.45-4.6-.95-9.35 7.7 2.45 15.3 6l-.3 2.05-1.9.1.2-.9-2.1-1.45q-3.3-2.25-6.85-3.75l-.6-.2-2.9-.75.6 3 .3 1.35-.5.05.3 1.65q1 .45 1.95 1.05 1.4.8 1.45 2.45 4.1 1.8 8.7.95l-.35-.4q-.85-.9-.5-2.1l2.2.8.3 2.1H.9l-1.1-.05-3.15-.05-1.35-.1m-7.05-14.3-.05-.1.05.05 2.45.85 5.1 1.7 8.5 3.35L1 11.6l-5.2-1.85-5.2-2.05-2.35-1.1M15.5 8.1l3.85-.65.3.25-9.3 2.65-3.6 1.45 1.55-1.25 3-1.3 1.05-.4 3.15-.75" fill="#00407a" transform="translate(12.95 -4.2)"/><path d="m-11.55 5.2-.35-1q8.8 2.05 16.8 5.7Q11.8 6.1 19.8 6l-.25.55-2.2.25-.4.05-.45.05-.6.15h-.15l-.35.1h-.15l-2.35.45-.05-.1-3.15.95L7.1 9.8l-.15.15-.15.05q-.8.45-1.5 1L-.25 8.9v-.05l-.8-.25-2.65-1-.9-.35-6.95-2.05" fill="#763b2c" transform="translate(12.95 -4.2)"/><path d="m21.05 9.65.1-.05-.35-2.1-1.15.2-.3-.25-3.85.65 1.85-.45V6.8l2.2-.25q1.8-1 1.7.35l-.9.4 1 .05q.9 5.1.55 10.25l.1.45-.3 1.2-.85.8-1.55.7-.3.35Q5.5 25-8.4 22.2l-.25-.4-1.5.25-.5-.45q-2.95-5.9-2.1-12.8l.35-.85.35.1 2.45.85 4.85 1.7.55.2 7.1 2.9.65.35.75-1.6-8.5-3.35-2.1-.8 1.35.45 2.35.75 2.15.65.2-1.25L5.3 11q.7-.55 1.5-1l.15-.05-1.3 1 .95.65.9-.7.8-.35-1.55 1.25L8.4 13h.2l7.05-1.9v.35l1.25-.15L9.1 14l.25 1-.1.15-1.3.1-.45 2.1 1.05.05 1.35.45-.1.3-1 .3-1.3.25.1 1.4v.25l.1.65 9.35-.95q.7-2.6 2.15-3.9l1.1 1.9.85-.25-.15-7.6.05-.55-.05.55-3.65.95-.05-.5 3.75-1m-4.95 11.4 2.5-.65.4-3.05.65 2.75 1.6-1.25.15-.25.05-.25.05-.2-.1-.2-.25-.15.25.15.1.2-.05.2-.05.25-.15.25-1.6 1.25-.65-2.75-.4 3.05-2.5.65v-.6l-2.25.2.05.85 2.2-.4v-.05M-4.6 22.1l-.8-.05 19.15-.55h.15-.15l-19.15.55.8.05 3.15.15V21.1l.1 1.25H.9V21.1h2.35l-.3-2.1-2.2-.8-.5-.2-.15-.3.15-.25.4-.2h.4l1.9-.1.3-2.05q-7.6-3.55-15.3-6-.5 4.75.95 9.35l.55 1.75q1.15-.7 1.5-1.95.1-.4.5-.7.85.8.75 2.05l.05.6 2.2.7h.85l.1 1.2m-.8-.05-1.1-.2-.45-1.35 1.4.4-1.4-.4.45 1.35 1.1.2M-11.7 6.4l-.55-.15-.3-.35.05-.35q.15-.2.45-.25l.5-.1 6.95 2.05-2.5-.65-.15 1.4-2-.75-2.45-.85m32.05.9-1 .15 1-.15m-8 1.55 1-.35-.45-.9 2.35-.45.25.95-3.15.75m-15.55 2.5-1.55-.75v.15l-1.85-.65-.1.65 1.75.75 1.6.65 1.5.55.15-.8-1.5-.55m9.65 5.95.45-2.5-1.7-.95-.6 1.95-.3 1.4-2.7.05.45 1.25 1.85-.05 2.35-.1-.2-.95H4.9v-.15l1.55.05M4.1 18.9v2.2h2.3v-2.2H4.1m16.05.7.25-.75L19 16.7l.75 3.15.4-.25m-21.2-11-.65-.2-2-.8 2.65 1m-11.7.2.7.3-.7-.3m2.2 11.4q-.1.75.95 1h.6l.25-2.6.8 3 1.45.25-1.45-.25-.8-3-.25 2.6h-.6q-1.05-.25-.95-1m10.35.85-1.25.05-1.9-.1 3.15.05" fill="#e8b837" transform="translate(12.95 -4.2)"/><path d="m19.65 7.7 1.15-.2.35 2.1-.1.05-3.75 1v-.05l-1.65.35v.15L8.6 13l1.9-.8-.15-1.85 9.3-2.65m-2.1 8-.3.55-.35.35q-1.75 1.3-3.1-.3.5-5.35 4.1-2.75l-.35 2.15m-5.5 4.15-.85.2-1.15.05-.9-.9-.35-.75 1-.3.05.65 1.15.85.15-.55-.45-1.5-.8.25-1.35-.45q0-.85.35-1.45.3-.6.75-.6l.7-.1q2.95.6 2.4 3.85l-.7.75m-23.9-13 .1-.25 2.35 1.1-.2 1.2-2.45-.85.2-1.2m.1-.3.05-.15 2.45.85-.05.15-2.45-.85M2.9 13.7l-7.1-2.9V9.75L1 11.6l1.9 2.1m1.7 2.1.6-1.95 1.7.95-.45 2.5.05-.85-1.9-.65m4.65 1.45 1-.3-.4-1.2-.6 1.5m-16.95-6.1.45.45q.75.85.75 2.05v.1l-.3 1.1q-.85 1.75-2.85.8l-.65-1.1-.3-1.35.25-1.45.8-.4 1.25-.4.6.2m24.2 2.8-.6-.35q-.35 0-.55.35-.25.3-.25.8t.25.85q.2.3.55.3l.6-.3.2-.85-.2-.8m-5.6 2.2.95 2.3.15-1.25-1.1-1.05m-12.45-.35q.65 1.5-.3 2.55l-.5.5-1.25.75-.95-.75q-2.05-3.9 2.55-3.9l.45.85m-1.15 2.15q.75-1.1-.15-2.1-1.95.3-1.7 2.25l1.15.35.7-.5" fill="#006aac" transform="translate(12.95 -4.2)"/><path d="m4.3 12.45-.75 1.6-.65-.35L1 11.6l3.3.85" fill="#005fac" transform="translate(12.95 -4.2)"/><path d="m10.35 10.35.15 1.85-1.9.8h-.2l-1.65-1.2 3.6-1.45M-6.3 8.3l2.1.8-5.1-1.7.05-.15 2 .75.95.3m2.1 2.5-.55-.2-4.85-1.7.2-1.2 5.2 2.05v1.05" fill="#1d7cb6" transform="translate(12.95 -4.2)"/><path d="m12.9 7.6.45.9-1 .35-1.05.4-.8.2-.8-1 3.15-.95.05.1M-.25 8.9l-.2 1.25-2.15-.65.1-1.35.8.25.65.2.8.25v.05m-4.7-.15L-6.3 8.3l-.95-.3.15-1.4 2.5.65-.35 1.5m1.75 2.6 1.5.55-.15.8-1.5-.55.15-.8m-1.75.15-1.75-.75.1-.65 1.85.65-.2.75m12.45-.6-.9.7-.95-.65 1.3-1 .15-.15.4 1.1m-2.6 6.5h1.15l.2.95-2.35.1v-1.1l1 .05m-4 3.7v1.25h-2.25l-.1-1.25 1.25-.05 1.1.05" fill="#ffdf7f" transform="translate(12.95 -4.2)"/><path d="m-4.6 22.1-.1-1.2 1.35.1 1.9.1v1.15l-3.15-.15M9.7 8.45l.8 1 .8-.2-3 1.3-.8.35-.4-1.1 2.6-1.35M-2.6 9.5l-2.35-.75.35-1.5.9.35 2 .8-.8-.25-.1 1.35m-2.15 1.1 1.55.75-.15.8-1.6-.65.2-.75v-.15m9.65 6.65v.15l-1-.05v1.1l-1.85.05-.45-1.25 2.7-.05.6.05m15.25 2.35-.4.25L19 16.7l1.4 2.15-.25.75" fill="#fff5d9" transform="translate(12.95 -4.2)"/><path d="m4.6 15.8 1.9.65-.05.85-1.55-.05-.6-.05.3-1.4m-.5 3.1h2.3v2.2H4.1v-2.2" fill="#0072b0" transform="translate(12.95 -4.2)"/><path d="M16.1 21.05v.05l-2.2.4-.05-.85 2.25-.2v.6M17.35 6.8v.85l-1.85.45-.25-.95h.15l.35-.1h.15l.6-.15.45-.05.4-.05m-1.7 4.3v-.15l1.65-.35v.05l.05.5-.45.15-1.25.15v-.35" fill="#c19a2e" transform="translate(12.95 -4.2)"/></g></defs></svg>

<?xml version="1.0" encoding="UTF-8" standalone="no"?>
<svg xmlns:xlink="http://www.w3.org/1999/xlink" height="82.0px" width="84.85px" xmlns="http://www.w3.org/2000/svg">
  <g transform="matrix(1.0, 0.0, 0.0, 1.0, 37.4, 42.25)">
    <use height="38.0" transform="matrix(1.0, 0.0, 0.0, 1.0, -11.95, -17.45)" width="32.05" xlink:href="#sprite0"/>
    <use height="38.95" transform="matrix(1.0, 0.0, 0.0, 1.0, -12.45, -17.95)" width="33.05" xlink:href="#sprite1"/>
    <use height="10.35" transform="matrix(1.0, 0.0, 0.0, 1.0, 10.45, -2.55)" width="9.65" xlink:href="#sprite2"/>
    <use height="10.35" transform="matrix(-1.0, 0.0, 0.0, 1.0, -2.25, -3.1)" width="9.65" xlink:href="#sprite2"/>
    <use height="19.15" transform="matrix(1.0, 0.0, 0.0, 1.0, -12.95, 4.2)" width="34.95" xlink:href="#shape3"/>
  </g>
  <defs>
    <g id="sprite0" transform="matrix(1.0, 0.0, 0.0, 1.0, -0.05, 0.0)">
      <use height="38.0" transform="matrix(1.0, 0.0, 0.0, 1.0, 0.05, 0.0)" width="32.05" xlink:href="#shape0"/>
    </g>
    <g id="shape0" transform="matrix(1.0, 0.0, 0.0, 1.0, -0.05, 0.0)">
      <path d="M27.35 7.4 Q29.5 11.55 30.9 16.15 32.35 20.85 32.05 25.65 31.7 30.6 27.85 33.75 24.05 36.95 19.1 37.8 L16.5 38.0 Q12.9 38.0 9.45 36.85 4.8 35.25 2.35 31.35 -0.2 27.4 0.05 23.0 0.25 18.6 2.05 13.7 3.85 8.75 7.0 5.05 10.1 1.3 14.7 0.1 L16.5 0.0 Q18.4 0.05 20.2 0.8 24.95 2.85 27.35 7.4" fill="#fee7ed" fill-rule="evenodd" stroke="none"/>
    </g>
    <g id="sprite1" transform="matrix(1.0, 0.0, 0.0, 1.0, 0.45, 0.5)">
      <use height="38.95" transform="matrix(1.0, 0.0, 0.0, 1.0, -0.45, -0.5)" width="33.05" xlink:href="#shape1"/>
    </g>
    <g id="shape1" transform="matrix(1.0, 0.0, 0.0, 1.0, 0.45, 0.5)">
      <path d="M27.35 7.4 Q24.95 2.85 20.2 0.8 17.55 -0.3 14.7 0.1 10.1 1.3 7.0 5.05 3.85 8.75 2.05 13.7 0.25 18.6 0.05 23.0 -0.2 27.4 2.35 31.35 4.8 35.25 9.45 36.85 14.1 38.4 19.1 37.8 24.05 36.95 27.85 33.75 31.7 30.6 32.05 25.65 32.35 20.85 30.9 16.15 29.5 11.55 27.35 7.4 Z" fill="none" stroke="#401a2d" stroke-linecap="round" stroke-linejoin="round" stroke-width="1.0"/>
    </g>
    <g id="sprite2" transform="matrix(1.0, 0.0, 0.0, 1.0, 0.0, 0.0)">
      <use height="10.35" transform="matrix(1.0, 0.0, 0.0, 1.0, 0.0, 0.0)" width="9.65" xlink:href="#shape2"/>
    </g>
    <g id="shape2" transform="matrix(1.0, 0.0, 0.0, 1.0, 0.0, 0.0)">
      <path d="M8.1 1.4 L8.15 1.5 Q8.75 3.5 9.15 6.3 L8.1 1.4 M3.25 9.15 L0.0 10.35 1.55 4.4 Q2.05 2.5 4.1 1.25 5.8 0.15 7.55 0.0 L8.1 1.35 Q4.45 1.6 3.65 4.6 2.75 7.85 3.25 9.15" fill="#ffcbb7" fill-rule="evenodd" stroke="none"/>
      <path d="M8.1 1.35 L8.1 1.4 9.15 6.3 9.6 8.6 9.65 9.15 3.25 9.15 Q2.75 7.85 3.65 4.6 4.45 1.6 8.1 1.35" fill="#ff9778" fill-rule="evenodd" stroke="none"/>
    </g>
    <g id="shape3" transform="matrix(1.0, 0.0, 0.0, 1.0, 12.95, -4.2)">
      <path d="M-12.4 7.95 L-11.85 6.85 -12.05 8.05 -12.4 7.95" fill="#000000" fill-rule="evenodd" stroke="none"/>
      <path d="M9.65 15.35 Q13.05 12.35 17.7 11.35 L20.3 10.9 20.25 12.15 19.85 13.25 19.5 13.85 18.5 13.65 19.05 16.05 17.55 15.7 17.9 13.55 Q14.3 10.95 13.8 16.3 15.15 17.9 16.9 16.6 L17.25 16.25 17.65 16.95 Q15.55 19.45 12.05 19.85 L12.75 19.1 Q13.3 15.85 10.35 15.25 L9.65 15.35 M10.05 20.1 L9.15 19.8 9.15 19.2 10.05 20.1 M7.6 20.1 L7.7 20.2 7.6 20.35 7.6 20.1 M9.8 18.15 L9.9 17.85 10.7 17.6 11.15 19.1 11.0 19.65 9.85 18.8 9.8 18.15 M9.25 17.25 L9.85 15.75 10.25 16.95 9.25 17.25 M1.05 17.25 L0.65 17.25 0.25 17.45 0.1 17.7 0.25 18.0 0.75 18.2 Q0.4 19.4 1.25 20.3 L1.6 20.7 Q-3.0 21.55 -7.1 19.75 -7.15 18.1 -8.55 17.3 -9.5 16.7 -10.5 16.25 L-10.8 14.6 -10.3 14.55 -9.65 15.65 Q-7.65 16.6 -6.8 14.85 L-6.5 13.75 -6.5 13.65 Q-6.5 12.45 -7.25 11.6 L-7.7 11.15 Q-4.15 12.65 -0.85 14.9 L1.25 16.35 1.05 17.25 M16.5 13.95 L16.7 14.75 16.5 15.6 15.9 15.9 Q15.55 15.9 15.35 15.6 15.1 15.25 15.1 14.75 15.1 14.25 15.35 13.95 15.55 13.6 15.9 13.6 L16.5 13.95 M10.9 16.15 L12.0 17.2 11.85 18.45 10.9 16.15 M-8.3 10.95 L-9.55 11.35 -10.35 11.75 -10.6 13.2 -11.2 10.2 -8.3 10.95 M-1.55 15.8 L-2.0 14.95 Q-6.6 14.95 -4.55 18.85 L-3.6 19.6 -2.35 18.85 -1.85 18.35 Q-0.9 17.3 -1.55 15.8 M-2.7 17.95 L-3.4 18.45 -4.55 18.1 Q-4.8 16.15 -2.85 15.85 -1.95 16.85 -2.7 17.95" fill="#005094" fill-rule="evenodd" stroke="none"/>
      <path d="M21.0 10.2 L21.15 17.8 20.3 18.05 19.2 16.15 Q17.75 17.45 17.05 20.05 L7.7 21.0 7.6 20.35 7.7 20.2 7.6 20.1 7.5 18.7 8.8 18.45 9.15 19.2 9.15 19.8 10.05 20.1 11.2 20.05 12.05 19.85 Q15.55 19.45 17.65 16.95 L17.25 16.25 17.55 15.7 19.05 16.05 18.5 13.65 19.5 13.85 19.85 13.25 20.25 12.15 20.3 10.9 17.7 11.35 Q13.05 12.35 9.65 15.35 9.2 15.35 8.9 15.95 8.55 16.55 8.55 17.4 L7.5 17.35 7.95 15.25 9.25 15.15 9.35 15.0 9.1 14.0 16.9 11.3 17.35 11.15 21.0 10.2 M-4.7 20.9 L-5.55 20.9 -7.75 20.2 -7.8 19.6 Q-7.7 18.35 -8.55 17.55 -8.95 17.85 -9.05 18.25 -9.4 19.5 -10.55 20.2 L-11.1 18.45 Q-12.55 13.85 -12.05 9.1 -4.35 11.55 3.25 15.1 L2.95 17.15 1.05 17.25 1.25 16.35 -0.85 14.9 Q-4.15 12.65 -7.7 11.15 L-8.3 10.95 -11.2 10.2 -10.6 13.2 -10.3 14.55 -10.8 14.6 -10.5 16.25 Q-9.5 16.7 -8.55 17.3 -7.15 18.1 -7.1 19.75 -3.0 21.55 1.6 20.7 L1.25 20.3 Q0.4 19.4 0.75 18.2 L2.95 19.0 3.25 21.1 0.9 21.1 -0.2 21.05 -3.35 21.0 -4.7 20.9 M-11.75 6.6 L-11.8 6.5 -11.75 6.55 -9.3 7.4 -4.2 9.1 4.3 12.45 1.0 11.6 -4.2 9.75 -9.4 7.7 -11.75 6.6 M15.5 8.1 L19.35 7.45 19.65 7.7 10.35 10.35 6.75 11.8 8.3 10.55 11.3 9.25 12.35 8.85 15.5 8.1" fill="#00407a" fill-rule="evenodd" stroke="none"/>
      <path d="M-11.55 5.2 L-11.9 4.2 Q-3.1 6.25 4.9 9.9 11.8 6.1 19.8 6.0 L19.55 6.55 17.35 6.8 16.95 6.85 16.5 6.9 15.9 7.05 15.75 7.05 15.4 7.15 15.25 7.15 12.9 7.6 12.85 7.5 9.7 8.45 7.1 9.8 6.95 9.95 6.8 10.0 Q6.0 10.45 5.3 11.0 L-0.25 8.9 -0.25 8.85 -1.05 8.6 -3.7 7.6 -4.6 7.25 -11.55 5.2" fill="#763b2c" fill-rule="evenodd" stroke="none"/>
      <path d="M21.05 9.65 L21.15 9.6 20.8 7.5 19.65 7.7 19.35 7.45 15.5 8.1 17.35 7.65 17.35 6.8 19.55 6.55 Q21.35 5.55 21.25 6.9 L20.35 7.3 21.35 7.35 Q22.25 12.45 21.9 17.6 L22.0 18.05 21.7 19.25 20.85 20.05 19.3 20.75 19.0 21.1 Q5.5 25.0 -8.4 22.2 L-8.65 21.8 -10.15 22.05 -10.65 21.6 Q-13.6 15.7 -12.75 8.8 L-12.4 7.95 -12.05 8.05 -9.6 8.9 -4.75 10.6 -4.2 10.8 2.9 13.7 3.55 14.05 4.3 12.45 -4.2 9.1 -6.3 8.3 -4.95 8.75 -2.6 9.5 -0.45 10.15 -0.25 8.9 5.3 11.0 Q6.0 10.45 6.8 10.0 L6.95 9.95 5.65 10.95 6.6 11.6 7.5 10.9 8.3 10.55 6.75 11.8 8.4 13.0 8.6 13.0 15.65 11.1 15.65 11.45 16.9 11.3 9.1 14.0 9.35 15.0 9.25 15.15 7.95 15.25 7.5 17.35 8.55 17.4 9.9 17.85 9.8 18.15 8.8 18.45 7.5 18.7 7.6 20.1 7.6 20.35 7.7 21.0 17.05 20.05 Q17.75 17.45 19.2 16.15 L20.3 18.05 21.15 17.8 21.0 10.2 21.05 9.65 21.0 10.2 17.35 11.15 17.3 10.65 21.05 9.65 M16.1 21.05 L18.6 20.4 19.0 17.35 19.65 20.1 21.25 18.85 21.4 18.6 21.45 18.35 21.5 18.15 21.4 17.95 21.15 17.8 21.4 17.95 21.5 18.15 21.45 18.35 21.4 18.6 21.25 18.85 19.65 20.1 19.0 17.35 18.6 20.4 16.1 21.05 16.1 20.45 13.85 20.65 13.9 21.5 16.1 21.1 16.1 21.05 M-4.6 22.1 L-5.4 22.05 13.75 21.5 13.9 21.5 13.75 21.5 -5.4 22.05 -4.6 22.1 -1.45 22.25 -1.45 21.1 -1.35 22.35 0.9 22.35 0.9 21.1 3.25 21.1 2.95 19.0 0.75 18.2 0.25 18.0 0.1 17.7 0.25 17.45 0.65 17.25 1.05 17.25 2.95 17.15 3.25 15.1 Q-4.35 11.55 -12.05 9.1 -12.55 13.85 -11.1 18.45 L-10.55 20.2 Q-9.4 19.5 -9.05 18.25 -8.95 17.85 -8.55 17.55 -7.7 18.35 -7.8 19.6 L-7.75 20.2 -5.55 20.9 -4.7 20.9 -4.6 22.1 M-5.4 22.05 L-6.5 21.85 -6.95 20.5 -5.55 20.9 -6.95 20.5 -6.5 21.85 -5.4 22.05 M-11.7 6.4 L-12.25 6.25 -12.55 5.9 -12.5 5.55 Q-12.35 5.35 -12.05 5.3 L-11.55 5.2 -4.6 7.25 -7.1 6.6 -7.25 8.0 -9.25 7.25 -11.7 6.4 M20.35 7.3 L19.35 7.45 20.35 7.3 M12.35 8.85 L13.35 8.5 12.9 7.6 15.25 7.15 15.5 8.1 12.35 8.85 M-3.2 11.35 L-4.75 10.6 -4.75 10.75 -6.6 10.1 -6.7 10.75 -4.95 11.5 -3.35 12.15 -1.85 12.7 -1.7 11.9 -3.2 11.35 M6.45 17.3 L6.9 14.8 5.2 13.85 4.6 15.8 4.3 17.2 1.6 17.25 2.05 18.5 3.9 18.45 6.25 18.35 6.05 17.4 4.9 17.4 4.9 17.25 6.45 17.3 M4.1 18.9 L4.1 21.1 6.4 21.1 6.4 18.9 4.1 18.9 M20.15 19.6 L20.4 18.85 19.0 16.7 19.75 19.85 20.15 19.6 M-1.05 8.6 L-1.7 8.4 -3.7 7.6 -1.05 8.6 M-12.75 8.8 L-12.05 9.1 -12.75 8.8 M-10.55 20.2 Q-10.65 20.95 -9.6 21.2 L-9.0 21.2 -8.75 18.6 -7.95 21.6 -6.5 21.85 -7.95 21.6 -8.75 18.6 -9.0 21.2 -9.6 21.2 Q-10.65 20.95 -10.55 20.2 M-0.2 21.05 L-1.45 21.1 -3.35 21.0 -0.2 21.05" fill="#e8b837" fill-rule="evenodd" stroke="none"/>
      <path d="M19.65 7.7 L20.8 7.5 21.15 9.6 21.05 9.65 17.3 10.65 17.3 10.6 15.65 10.95 15.65 11.1 8.6 13.0 10.5 12.2 10.35 10.35 19.65 7.7 M17.55 15.7 L17.25 16.25 16.9 16.6 Q15.15 17.9 13.8 16.3 14.3 10.95 17.9 13.55 L17.55 15.7 M12.05 19.85 L11.2 20.05 10.05 20.1 9.15 19.2 8.8 18.45 9.8 18.15 9.85 18.8 11.0 19.65 11.15 19.1 10.7 17.6 9.9 17.85 8.55 17.4 Q8.55 16.55 8.9 15.95 9.2 15.35 9.65 15.35 L10.35 15.25 Q13.3 15.85 12.75 19.1 L12.05 19.85 M-11.85 6.85 L-11.75 6.6 -9.4 7.7 -9.6 8.9 -12.05 8.05 -11.85 6.85 M-11.75 6.55 L-11.7 6.4 -9.25 7.25 -9.3 7.4 -11.75 6.55 M2.9 13.7 L-4.2 10.8 -4.2 9.75 1.0 11.6 2.9 13.7 M4.6 15.8 L5.2 13.85 6.9 14.8 6.45 17.3 6.5 16.45 4.6 15.8 M9.25 17.25 L10.25 16.95 9.85 15.75 9.25 17.25 M-7.7 11.15 L-7.25 11.6 Q-6.5 12.45 -6.5 13.65 L-6.5 13.75 -6.8 14.85 Q-7.65 16.6 -9.65 15.65 L-10.3 14.55 -10.6 13.2 -10.35 11.75 -9.55 11.35 -8.3 10.95 -7.7 11.15 M16.5 13.95 L15.9 13.6 Q15.55 13.6 15.35 13.95 15.1 14.25 15.1 14.75 15.1 15.25 15.35 15.6 15.55 15.9 15.9 15.9 L16.5 15.6 16.7 14.75 16.5 13.95 M10.9 16.15 L11.85 18.45 12.0 17.2 10.9 16.15 M-1.55 15.8 Q-0.9 17.3 -1.85 18.35 L-2.35 18.85 -3.6 19.6 -4.55 18.85 Q-6.6 14.95 -2.0 14.95 L-1.55 15.8 M-2.7 17.95 Q-1.95 16.85 -2.85 15.85 -4.8 16.15 -4.55 18.1 L-3.4 18.45 -2.7 17.95" fill="#006aac" fill-rule="evenodd" stroke="none"/>
      <path d="M4.3 12.45 L3.55 14.05 2.9 13.7 1.0 11.6 4.3 12.45" fill="#005fac" fill-rule="evenodd" stroke="none"/>
      <path d="M10.35 10.35 L10.5 12.2 8.6 13.0 8.4 13.0 6.75 11.8 10.35 10.35 M-6.3 8.3 L-4.2 9.1 -9.3 7.4 -9.25 7.25 -7.25 8.0 -6.3 8.3 M-4.2 10.8 L-4.75 10.6 -9.6 8.9 -9.4 7.7 -4.2 9.75 -4.2 10.8" fill="#1d7cb6" fill-rule="evenodd" stroke="none"/>
      <path d="M12.9 7.6 L13.35 8.5 12.35 8.85 11.3 9.25 10.5 9.45 9.7 8.45 12.85 7.5 12.9 7.6 M-0.25 8.9 L-0.45 10.15 -2.6 9.5 -2.5 8.15 -1.7 8.4 -1.05 8.6 -0.25 8.85 -0.25 8.9 M-4.95 8.75 L-6.3 8.3 -7.25 8.0 -7.1 6.6 -4.6 7.25 -4.95 8.75 M-3.2 11.35 L-1.7 11.9 -1.85 12.7 -3.35 12.15 -3.2 11.35 M-4.95 11.5 L-6.7 10.75 -6.6 10.1 -4.75 10.75 -4.95 11.5 M7.5 10.9 L6.6 11.6 5.65 10.95 6.95 9.95 7.1 9.8 7.5 10.9 M4.9 17.4 L6.05 17.4 6.25 18.35 3.9 18.45 3.9 17.35 4.9 17.4 M0.9 21.1 L0.9 22.35 -1.35 22.35 -1.45 21.1 -0.2 21.05 0.9 21.1" fill="#ffdf7f" fill-rule="evenodd" stroke="none"/>
      <path d="M-4.6 22.1 L-4.7 20.9 -3.35 21.0 -1.45 21.1 -1.45 22.25 -4.6 22.1 M9.7 8.45 L10.5 9.45 11.3 9.25 8.3 10.55 7.5 10.9 7.1 9.8 9.7 8.45 M-2.6 9.5 L-4.95 8.75 -4.6 7.25 -3.7 7.6 -1.7 8.4 -2.5 8.15 -2.6 9.5 M-4.75 10.6 L-3.2 11.35 -3.35 12.15 -4.95 11.5 -4.75 10.75 -4.75 10.6 M4.9 17.25 L4.9 17.4 3.9 17.35 3.9 18.45 2.05 18.5 1.6 17.25 4.3 17.2 4.9 17.25 M20.15 19.6 L19.75 19.85 19.0 16.7 20.4 18.85 20.15 19.6" fill="#fff5d9" fill-rule="evenodd" stroke="none"/>
      <path d="M4.6 15.8 L6.5 16.45 6.45 17.3 4.9 17.25 4.3 17.2 4.6 15.8 M4.1 18.9 L6.4 18.9 6.4 21.1 4.1 21.1 4.1 18.9" fill="#0072b0" fill-rule="evenodd" stroke="none"/>
      <path d="M16.1 21.05 L16.1 21.1 13.9 21.5 13.85 20.65 16.1 20.45 16.1 21.05 M17.35 6.8 L17.35 7.65 15.5 8.1 15.25 7.15 15.4 7.15 15.75 7.05 15.9 7.05 16.5 6.9 16.95 6.85 17.35 6.8 M15.65 11.1 L15.65 10.95 17.3 10.6 17.3 10.65 17.35 11.15 16.9 11.3 15.65 11.45 15.65 11.1" fill="#c19a2e" fill-rule="evenodd" stroke="none"/>
    </g>
  </defs>
</svg>
